azure-patterns/svg-blowhorn.svg

<svg xmlns="http://www.w3.org/2000/svg" viewBox="0 0 51 47">
                                
                            
  <g stroke="none" stroke-width="1" fill="none" fill-rule="evenodd">
    <path d="M17.9352113,32.3626263 C14.1530904,33.1723318 11.7406094,36.9068653 12.5464952,40.7043877 C13.352381,44.50191 17.0715281,46.9246927 20.8538882,46.1161145 C24.6362483,45.3075362 27.0498334,41.573722 26.2450704,37.7759596 C25.8584566,35.9514878 24.7656262,34.3560332 23.2071189,33.340767 C21.6486116,32.3255007 19.7521688,31.973638 17.9352113,32.3626263 L17.9352113,32.3626263 Z M20.1253521,42.6950505 C18.7322093,42.9937038 17.297094,42.4201142 16.4895006,41.2418664 C15.6819071,40.0636186 15.6609662,38.5128784 16.4364471,37.31308 C17.2119279,36.1132816 18.6310272,35.5008372 20.0317224,35.7614577 C21.4324175,36.0220781 22.538711,37.1044098 22.834507,38.5035354 C23.2379277,40.4121218 22.0251356,42.2880261 20.1246479,42.6950505 L20.1253521,42.6950505 Z" fill="#969696" fill-rule="nonzero"></path>
    <g transform="translate(0.000000, 3.535354)" fill-rule="nonzero">
      <ellipse fill="#0072C6" transform="translate(32.910629, 15.667593) rotate(-31.749000) translate(-32.910629, -15.667593) " cx="32.9106289" cy="15.6675927" rx="2.85352113" ry="5.18212121"></ellipse>
      <rect fill="#969696" transform="translate(4.542421, 33.292743) rotate(-31.749000) translate(-4.542421, -33.292743) " x="2.59911067" y="28.1109755" width="3.88661972" height="10.3635354" rx="1.94330986"></rect>
      <path d="M41.1232394,31.3939394 C41.1232394,31.3939394 22.806338,33.1255556 17.1746479,35.2191919 C15.7211268,35.7593939 12.6887324,37.7688889 10.8591549,39.0260606 C10.4333227,39.2876966 9.91955128,39.3634047 9.43680103,39.2356551 C8.95405077,39.1079056 8.54418764,38.7877773 8.30211268,38.3493939 L1.7084507,27.6535354 C1.42573093,27.2405877 1.32315314,26.7296603 1.42445533,26.2389892 C1.52575751,25.748318 1.82215981,25.3204296 2.24507042,25.0543434 C4.22535211,23.9456566 7.47253521,22.0535354 8.64507042,20.9653535 C12.9887324,16.9350505 22.8077465,1.67929293 22.8077465,1.67929293 L41.1232394,31.3939394 Z" fill="#DEDEDE"></path>
      <path d="M10.1408451,19.3949495 C9.59647887,20.0157576 9.0915493,20.5517172 8.64647887,20.9653535 C7.47253521,22.0535354 4.22535211,23.9456566 2.24507042,25.0543434 C1.82215981,25.3204296 1.52575751,25.748318 1.42445533,26.2389892 C1.32315314,26.7296603 1.42573093,27.2405877 1.7084507,27.6535354 L8.3028169,38.3529293 C8.54489186,38.7913127 8.954755,39.1114409 9.43750525,39.2391905 C9.9202555,39.36694 10.4340269,39.291232 10.8598592,39.029596 C12.6908451,37.7724242 15.7190141,35.7629293 17.1753521,35.2227273 C17.9294655,34.9546675 18.697493,34.7278366 19.4760563,34.5432323 L10.1408451,19.3949495 Z" fill="#0072C6"></path>
      <path d="M5.00633803,33.0046465 L8.30211268,38.3529293 C8.54418764,38.7913127 8.95405077,39.1114409 9.43680103,39.2391905 C9.91955128,39.36694 10.4333227,39.291232 10.8591549,39.029596 C12.6901408,37.7724242 15.7183099,35.7629293 17.1746479,35.2227273 C17.9287502,34.9546332 18.6967796,34.7278018 19.4753521,34.5432323 L14.7838028,26.9294949 L5.00633803,33.0046465 Z" fill="#0072C6"></path>
      <path d="M31.8394366,16.3333333 L22.8077465,1.67929293 C22.8077465,1.67929293 12.9887324,16.9357576 8.64507042,20.9653535 C7.47253521,22.0535354 4.22535211,23.9456566 2.24507042,25.0543434 C1.82215981,25.3204296 1.52575751,25.748318 1.42445533,26.2389892 C1.32315314,26.7296603 1.42573093,27.2405877 1.7084507,27.6535354 L5.00633803,33.0046465 L31.8394366,16.3333333 Z" fill="#FFFFFF" opacity="0.29"></path>
      <rect fill="#969696" transform="translate(32.394995, 16.272686) rotate(-31.749000) translate(-32.394995, -16.272686) " x="31.089009" y="-1.68231361" width="2.61197183" height="35.91" rx="1.30598592"></rect>
    </g>
    <path d="M30.1352113,9.30222222 L32.5943662,0.311818182" stroke="#FFFFFF" stroke-width="2"></path>
    <path d="M38.8119718,15.3384848 L46.8880282,10.7375758" stroke="#FFFFFF" stroke-width="2"></path>
    <path d="M40.9373239,26.1043434 L49.9042254,28.5253535" stroke="#FFFFFF" stroke-width="2"></path>
  </g>
</svg>

<svg xmlns="http://www.w3.org/2000/svg" viewBox="0 0 51 47"><g fill="none" fill-rule="evenodd"><path d="M17.935 32.363c-3.782.81-6.194 4.544-5.389 8.341.806 3.798 4.526 6.22 8.308 5.412 3.782-.808 6.196-4.542 5.391-8.34a7.031 7.031 0 0 0-3.038-4.435 6.98 6.98 0 0 0-5.272-.978zm2.19 10.332a3.515 3.515 0 0 1-3.635-1.453 3.547 3.547 0 0 1-.054-3.929 3.515 3.515 0 0 1 6.399 1.19 3.535 3.535 0 0 1-2.71 4.192z" fill="#969696" fill-rule="nonzero"/><g transform="translate(0 3.535)" fill-rule="nonzero"><ellipse fill="#0072C6" transform="rotate(-31.749 32.91 15.668)" cx="32.911" cy="15.668" rx="2.854" ry="5.182"/><rect fill="#969696" transform="rotate(-31.749 4.542 33.293)" x="2.599" y="28.111" width="3.887" height="10.364" rx="1.943"/><path d="M41.123 31.394s-18.317 1.732-23.948 3.825c-1.454.54-4.486 2.55-6.316 3.807a1.825 1.825 0 0 1-2.557-.677L1.708 27.654a1.844 1.844 0 0 1 .537-2.6c1.98-1.108 5.228-3 6.4-4.089C12.99 16.935 22.808 1.68 22.808 1.68l18.315 29.715z" fill="#DEDEDE"/><path d="M10.14 19.395c-.544.62-1.048 1.157-1.494 1.57-1.173 1.089-4.42 2.98-6.4 4.09a1.844 1.844 0 0 0-.537 2.6l6.594 10.698a1.825 1.825 0 0 0 2.557.677c1.83-1.258 4.859-3.267 6.315-3.807a22.075 22.075 0 0 1 2.301-.68l-9.335-15.148z" fill="#0072C6"/><path d="M5.006 33.005l3.296 5.348a1.825 1.825 0 0 0 2.557.677c1.831-1.258 4.86-3.267 6.316-3.807a22.057 22.057 0 0 1 2.3-.68l-4.691-7.614-9.778 6.076z" fill="#0072C6"/><path d="M31.84 16.333L22.807 1.68s-9.82 15.257-14.163 19.286c-1.172 1.089-4.42 2.98-6.4 4.09a1.844 1.844 0 0 0-.537 2.6l3.298 5.35L31.84 16.333z" fill="#FFF" opacity=".29"/><rect fill="#969696" transform="rotate(-31.749 32.395 16.273)" x="31.089" y="-1.682" width="2.612" height="35.91" rx="1.306"/></g><path d="M30.135 9.302l2.46-8.99M38.812 15.338l8.076-4.6M40.937 26.104l8.967 2.421" stroke="#FFF" stroke-width="2"/></g></svg>
